X: 991
T: Hekimoğlu
C: Kadir İnanır
O: Turkey
F: http://compmusic.upf.edu/node/140
N: suzidilara--turku--sofyan--hekimoglu--
N: makam= suzidilara
N: form= turku
N: usul= sofyan = 4/4
M: 4/4
L: 1/16
K: C ^9/8f   
Q: 1/4=60
%%MIDI tuningsystem comma53
c2cc c2cB BBBA BBA/G/A/G/  | G3/2B/AB G2AF G3G G2G2  | 
w:  ARANAĞME  |   | 
c2cc c2cB BBBA BBA/G/A/G/  | G3/2B/AB G2AF G3G G2G2  | 
w:  ARANAĞME  |   | 
z2GG G2G2 AGAB G4  | Bcd2 d2d2 decd Bcd2  | 
w:  He ki moğ lu  der *  *  *  ler   |  be *  nim  as lı ma    | 
c2cc c2cB BBBA BBA/G/A/G/  | G3/2B/AB G2AF G8  | 
w:  Ay na lı  mar tin  *  yap tır dım  da  na ri nim   |  ken *  di  *  nes li *  me    | 
c2cc c2cB BBBA BBA/G/A/G/  | G3/2B/AB G2AF G8  | 
w:  Ay na lı  mar tin  *  yap tır dım  da  na ri nim   |  ken *  di  *  nes li *  me    | 
c2cc c2cB BBBA BBA/G/A/G/  | G3/2B/AB G2AF G3G G2G2  | 
w:  ARANAĞME  |   | 
c2cc c2cB BBBA BBA/G/A/G/  | G3/2B/AB G2AF G3G G2G2  | 
w:  ARANAĞME  |   | 
z2GG G2G2 AGAB G4  | Bcd2 d2d2 decd Bcd2  | 
w:  He ki moğ lu  der *  *  *  ler   |  u *  fak  bir_ u şak    | 
c3c c2cB BBBA BBA/G/A/G/  | GBAB G2AF G8  | 
w:  Bir  o muz dan  *  bir_ o mu za  na ri nim   |  on  *  ar *  ma  fi *  şek    | 
c3c c2cB BBBA BBA/G/A/G/  | GBAB G2AF G8  | 
w:  Bir  o muz dan  *  bir_ o mu za  na ri nim   |  on  *  ar *  ma  fi *  şek    | 
c2cc c2cB BBBA BBA/G/A/G/  | G3/2B/AB G2AF G3G G2G2  | 
w:  ARANAĞME  |   | 
c2cc c2cB BBBA BBA/G/A/G/  | G3/2B/AB G2AF G3G G2G2  | 
w:  ARANAĞME  |   | 
z2GG G2G2 AGAB G4  | Bcd2 d2d2 decd Bcd2  | 
w:  He ki moğ lu  der *  *  *  ler   |  be *  nim  as lı ma    | 
c2cc c2cB BBBA BBA/G/A/G/  | G3/2B/AB G2AF G8  | 
w:  Ay na lı  mar tin  *  yap tır dım  da  na ri nim   |  ken *  di  *  nes li *  me    | 
c2cc c2cB BBBA BBA/G/A/G/  | G3/2B/AB G2AF G8  | 
w:  Ay na lı  mar tin  *  yap tır dım  da  na ri nim   |  ken *  di  *  nes li *  me    | 
c2cc c2cB BBBA BBA/G/A/G/  | G3/2B/AB G2AF G3G G2G2  | 
w:  ARANAĞME  |   | 
c2cc c2cB BBBA BBA/G/A/G/  | G3/2B/AB G2AF G3G G2G2  | 
w:  ARANAĞME  |   | 
z2GG G2G2 AGAB G4  | Bcd2 d2d2 decd Bcd2  | 
w:  He ki moğ lu  der *  *  *  ler   |  u *  fak  bir_ u şak    | 
c3c c2cB BBBA BBA/G/A/G/  | GBAB G2AF G8  | 
w:  Bir  o muz dan  *  bir_ o mu za  na ri nim   |  on  *  ar *  ma  fi *  şek    | 
c3c c2cB BBBA BBA/G/A/G/  | GBAB G2AF G8  | 
w:  Bir  o muz dan  *  bir_ o mu za  na ri nim   |  on  *  ar *  ma  fi *  şek    | 
|


